src/assets/img/mute.svg

<svg xmlns="http://www.w3.org/2000/svg" width="48" height="48"><path d="M47.484 28.242l-4.242 4.242L39 28.242l-4.242 4.242-4.242-4.242L34.758 24l-4.242-4.242 4.242-4.245L39 19.758l4.242-4.245 4.242 4.245L43.242 24l4.242 4.242zM9 36c-4.971 0-9-4.032-9-9v-6a9 9 0 0 1 9-9h3L27 0v48L12 36H9zm12 0V12l-6 6H9a3 3 0 0 0-3 3v6c0 1.659 1.341 3 3 3h6l6 6z" fill="#666"/></svg>

<?xml version="1.0" encoding="UTF-8" standalone="no"?>
<!-- Generator: IcoMoon.io -->

<svg
   xmlns:dc="http://purl.org/dc/elements/1.1/"
   xmlns:cc="http://creativecommons.org/ns#"
   xmlns:rdf="http://www.w3.org/1999/02/22-rdf-syntax-ns#"
   xmlns:svg="http://www.w3.org/2000/svg"
   xmlns="http://www.w3.org/2000/svg"
   xmlns:sodipodi="http://sodipodi.sourceforge.net/DTD/sodipodi-0.dtd"
   xmlns:inkscape="http://www.inkscape.org/namespaces/inkscape"
   version="1.1"
   id="Layer_1"
   x="0px"
   y="0px"
   width="48px"
   height="48px"
   viewBox="0 0 48 48"
   enable-background="new 0 0 16 16"
   xml:space="preserve"
   fill="#000000"
   sodipodi:docname="mute.svg"
   inkscape:version="0.92.2 2405546, 2018-03-11"><metadata
   id="metadata9"><rdf:RDF><cc:Work
       rdf:about=""><dc:format>image/svg+xml</dc:format><dc:type
         rdf:resource="http://purl.org/dc/dcmitype/StillImage" /></cc:Work></rdf:RDF></metadata><defs
   id="defs7" /><sodipodi:namedview
   pagecolor="#ffffff"
   bordercolor="#666666"
   borderopacity="1"
   objecttolerance="10"
   gridtolerance="10"
   guidetolerance="10"
   inkscape:pageopacity="0"
   inkscape:pageshadow="2"
   inkscape:window-width="1852"
   inkscape:window-height="1051"
   id="namedview5"
   showgrid="false"
   inkscape:zoom="4.9166667"
   inkscape:cx="22.576271"
   inkscape:cy="24"
   inkscape:window-x="68"
   inkscape:window-y="0"
   inkscape:window-maximized="1"
   inkscape:current-layer="Layer_1" /> <path
   d="M 47.484,28.242l-4.242,4.242L 39.00,28.242l-4.242,4.242l-4.242-4.242 L 34.758,24.00l-4.242-4.242l 4.242-4.245L 39.00,19.758l 4.242-4.245l 4.242,4.245L 43.242,24.00L 47.484,28.242z M 9.00,36.00c-4.971,0.00-9.00-4.032-9.00-9.00L0.00,21.00 c0.00-4.971, 4.029-9.00, 9.00-9.00l3.00,0.00 l 15.00-12.00l0.00,48.00 l-15.00-12.00L9.00,36.00 z M 21.00,36.00L21.00,27.00 L21.00,21.00 L21.00,12.00 L 15.00,18.00L9.00,18.00 C 7.341,18.00, 6.00,19.344, 6.00,21.00l0.00,6.00 c0.00,1.659, 1.341,3.00, 3.00,3.00l6.00,0.00 L 21.00,36.00z"
   id="path2"
   style="fill:#666666;fill-opacity:1" /></svg>
